X: 39345
T: Tam Lin
R: reel
M: 4/4
K: Dminor
|:A2DA FADA|B2DB FBDB|c2Ec GcEc|FEDc Ad{e}dA|
A2DA FADA|B2DB FBDB|c2Ec GcEc|fedc Ad{e}d2:|
|:dA~A2 FADA|dA~A2 FADA|cG~G2 EG~G2|cG~G2 cdec|
dA~A2 FADA|dA~A2 FADA|B2BA Bcde|fdec AD~D2:|

